X: 10502
Q: "Andante"
M: C
L: 1/8
K: G
d |\
g2 {g}fe d2 (3(efg) | BB {d}c>A G3 d |\
g2 f{g}e d2 (ef/g/) | BB {d}cA G3 :|
|: d/>c/ |\
g2 {g}f{g}e d2 (d/c/)(e/c/) | BB {d}cA G3 :|


